modules/hawcons-stroke/icons/icon-39-stars.svg

<?xml version="1.0" encoding="UTF-8" standalone="no"?>
<svg width="32px" height="32px" viewBox="0 0 32 32" version="1.1" xmlns="http://www.w3.org/2000/svg" xmlns:xlink="http://www.w3.org/1999/xlink" xmlns:sketch="http://www.bohemiancoding.com/sketch/ns">
    <!-- Generator: Sketch 3.0.3 (7891) - http://www.bohemiancoding.com/sketch -->
    <title>icon 39 stars</title>
    <desc>Created with Sketch.</desc>
    <defs></defs>
    <g id="Page-1" stroke="none" stroke-width="1" fill="none" fill-rule="evenodd" sketch:type="MSPage">
        <g id="icon-39-stars" sketch:type="MSArtboardGroup" fill="#929292">
            <path d="M13.76,15.64 L16,15 L13.76,14.36 L13.76,14.36 L12.5,11 L11.24,14.36 L9,15 L11.24,15.64 L12.5,19 L13.76,15.64 L13.76,15.64 Z M23.7142857,9.23809524 L22.5,6 L21.2857143,9.23809524 L19,10 L21.2857143,10.7619048 L22.5,14 L23.7142857,10.7619048 L26,10 L23.7142857,9.23809524 L23.7142857,9.23809524 L23.7142857,9.23809524 Z M21.7142857,21.2380952 L20.5,18 L19.2857143,21.2380952 L17,22 L19.2857143,22.7619048 L20.5,26 L21.7142857,22.7619048 L24,22 L21.7142857,21.2380952 L21.7142857,21.2380952 L21.7142857,21.2380952 Z M14.4594595,13.4864865 L12.5,8 L10.5405405,13.4864865 L6,15 L10.5405405,16.5135135 L12.5,22 L14.4594595,16.5135135 L19,15 L14.4594595,13.4864865 L14.4594595,13.4864865 L14.4594595,13.4864865 Z" id="stars" sketch:type="MSShapeGroup"></path>
        </g>
    </g>
</svg>

<svg width="32" height="32" xmlns="http://www.w3.org/2000/svg"><path d="M13.76 15.64L16 15l-2.24-.64L12.5 11l-1.26 3.36L9 15l2.24.64L12.5 19l1.26-3.36zm9.954-6.402L22.5 6l-1.214 3.238L19 10l2.286.762L22.5 14l1.214-3.238L26 10l-2.286-.762zm-2 12L20.5 18l-1.214 3.238L17 22l2.286.762L20.5 26l1.214-3.238L24 22l-2.286-.762zm-7.255-7.752L12.5 8l-1.96 5.486L6 15l4.54 1.514L12.5 22l1.96-5.486L19 15l-4.54-1.514z" fill="#929292" fill-rule="evenodd"/></svg>
